X: 31133
T: COTILLION No. 18. AUBURN SETT tune 5
C:
%R: jig
B: Elias Howe "The Musician's Companion" Part 3 1844 p.113 #3
S: http://imslp.org/wiki/The_Musician's_Companion_(Howe,_Elias)
Z: 2015 John Chambers <jc:trillian.mit.edu>
M: 6/8
L: 1/8
K: C
% - - - - - - - - - - - - - - - - - - - - - - - - - - - - -
G |\
G2c cBc | e2c cBc | B2c d2e | f2d B2G |\
G2c cBc | e2c cBc | cBA GAB | cde d2 H|]
[cG] |\
c2e f2a | g2a gec | c2e f2a | gec d2e |\
c2e f2a | g2a gec | cBA GAB | cde "^D.C."d2 |]
% - - - - - - - - - - Dance description - - - - - - - - - -
%%begintext align
%% All alamand to right,
%% all promenade, &c.
%%endtext
% - - - - - - - - - - - - - - - - - - - - - - - - - - - - -
%%sep 1 1 300
